X:1
T:Title
%%score { ( 1 4 ) | ( 2 3 ) }
L:1/8
Q:1/4=57
M:6/8
K:F
V:1 treble nm="Grand Piano"
V:4 treble 
V:2 bass 
V:3 bass 
V:1
 Ac[CFA] .[CEG]2 [CEA] | FAF E A2 | DFD z F[CA] | .[=B,G]2 [G,B,D] G2- [CG] | %4
w: J.~W.~Lerman * * * *||||
 Ac[CFA] .[CEG]2 [CEA] | .[A,DF]2 [A,DF] .[A,CE]2 [F=B] | c=BA z Ac | %7
w: |||
[M:15/16] =BA/-A/[=B,D_A][A,C=A]3/2- [A,CA]3 |[M:4/4][Q:1/4=80] [CFA]2 [CFA]2 [Gc]4 | %9
w: ||
 [Fd]2 [Fd]2 [FA]4 | c2 B2 ^F2 G2 | [EA]2 [EG]2 E2 C2 | A2 A2 c4 | [Fd]2 [Fd]2 [FA]4 | %14
w: |||||
 c2 =B2 A2 B2 | [Ec]6[K:bass] z2 | B2 B2 A2 A2 | B2 B2 G4 | c2 c2 =B2 B2 | c2 c2 A4 | d2 d2 c2 c2 | %21
w: |||||||
[M:5/4] B2 B2 A6 | %22
w: |
[M:4/4] [FA]2 [FA]2 [A,DF]4[Q:1/4=79][Q:1/4=78][Q:1/4=76][Q:1/4=75][Q:1/4=74][Q:1/4=73][Q:1/4=71][Q:1/4=70][Q:1/4=69][Q:1/4=68][Q:1/4=66][Q:1/4=65][Q:1/4=64][Q:1/4=63][Q:1/4=61] | %23
w: |
[M:5/4] [DFG]2 [^CFG]2 [=CFA]6 |] %24
w: |
V:2
 [F,CF]2 F, z[K:treble] c[K:bass]C, | [D,A,D]2 [D,A,D] [A,,A,]3 | %2
 [B,,F,B,]2 [B,,F,B,] [A,,F,]2 [F,,F,] | z FG,, z E2 | [F,CF]2 F, z[K:treble] c[K:bass]C, | %5
 z AD, z A[D,A,] | [E,E]-[E,DE][E,CE] [E,C]2 [E,A,E] |[M:15/16] ._A,3/2 z3/2 z3/2 z3 | %8
[M:4/4] F,2 F,2 [E,G,]4 | [D,A,]2 [D,A,]2 [D,D]4 | [^F,A,_E]2 [G,B,D]2 [A,CD]2 [B,D]2 | %11
 [C,B,]2 [C,B,]2 [C,G,C]2 [C,E,]2 | [F,C]2 [F,C]2 [F,A,F]4 | [D,A,]2 [D,A,]2 [D,D]4 | %14
 [G,DF]2 [G,DF]2 [G,CF]2 [G,DF]2 | [C,C]6 z2 | [G,CE]2 [G,CE]2 [^F,C_E]2 [F,CE]2 | %17
 [G,CE]2[K:treble] [G,CE]2 [B,CE]4 | [A,CF]2 [A,CF]2 [_A,DF]2 [A,DF]2 | [A,CF]2 [A,CF]2 [F,CF]4 | %20
 [B,F]2 [B,F]2 [A,CF]2 [A,CF]2 |[M:5/4][K:bass] [G,CE]2 [G,CE]2 [A,^CE]6 | %22
[M:4/4] [D,D]2 [D,D]2 D,4 |[M:5/4] B,,2 B,,2 F,6 |] %24
V:3
 z3 .C,3[K:treble][K:bass] | x6 | x6 | .[G,,D,]3 C,3 | z3 .C,3[K:treble][K:bass] | .D,3 .A,,3 | %6
 .A,3 z3 |[M:15/16] [E,D]-[E,=A,D]/-[E,A,D]/E,A,,3/2- A,,3 |[M:4/4] x8 | x8 | x8 | x8 | x8 | x8 | %14
 x8 | x8 | x8 | x2[K:treble] x6 | x8 | x8 | x8 |[M:5/4][K:bass] x10 |[M:4/4] x8 |[M:5/4] x10 |] %24
V:4
 x6 | z3 ^C3 | z3 .C3 | z3 .[G,F]3 | x6 | x6 | z3 .E3 |[M:15/16] x15/2 |[M:4/4] x8 | x8 | x8 | x8 | %12
 x8 | x8 | x8 | z2[K:bass] G,,2 C,,2 z2 | x8 | x8 | x8 | x8 | x8 |[M:5/4] x10 |[M:4/4] x8 | %23
[M:5/4] x10 |] %24

